epam-assets/icon-sources/18/internal-logo/smart_locker.svg

<svg width="18" height="18" viewBox="0 0 18 18" fill="none" xmlns="http://www.w3.org/2000/svg">
<g id="18/internal-logo/smart_locker">
<path id="icon" fill-rule="evenodd" clip-rule="evenodd" d="M9.04146 1.40625C7.90229 1.4062 6.80053 1.81288 5.93459 2.55306C5.06866 3.29324 4.49545 4.31828 4.31821 5.44357C4.27793 5.69931 4.45258 5.93927 4.70832 5.97955C4.96405 6.01983 5.20401 5.84517 5.24429 5.58944C5.38678 4.68479 5.84759 3.86074 6.54374 3.26569C7.23988 2.67065 8.12561 2.34371 9.04141 2.34375C9.95722 2.34379 10.8429 2.67082 11.539 3.26593C12.2351 3.86105 12.6958 4.68514 12.8382 5.58981C12.8785 5.84554 13.1184 6.02022 13.3742 5.97997C13.6299 5.93971 13.8046 5.69976 13.7643 5.44403C13.5872 4.31871 13.0141 3.29362 12.1482 2.55336C11.2824 1.81309 10.1806 1.4063 9.04146 1.40625ZM7.80759 4.77266C7.61224 4.94254 7.31617 4.9219 7.14629 4.72655C6.9764 4.5312 6.99705 4.23512 7.1924 4.06524C7.70311 3.62111 8.35685 3.37604 9.03367 3.37501C9.71048 3.37397 10.365 3.61703 10.877 4.05959C11.0729 4.22887 11.0945 4.52489 10.9252 4.72075C10.7559 4.91662 10.4599 4.93818 10.264 4.7689C9.92264 4.47385 9.48631 4.31181 9.0351 4.3125C8.58389 4.3132 8.14807 4.47658 7.80759 4.77266ZM13.6875 8.42601H4.3125C4.20895 8.42601 4.125 8.50996 4.125 8.61351V14.9885C4.125 15.0921 4.20895 15.176 4.3125 15.176H13.6875C13.7911 15.176 13.875 15.0921 13.875 14.9885V8.61351C13.875 8.50996 13.7911 8.42601 13.6875 8.42601ZM4.3125 7.48851C3.69118 7.48851 3.1875 7.99219 3.1875 8.61351V14.9885C3.1875 15.6098 3.69118 16.1135 4.3125 16.1135H13.6875C14.3088 16.1135 14.8125 15.6098 14.8125 14.9885V8.61351C14.8125 7.99219 14.3088 7.48851 13.6875 7.48851H4.3125ZM9.45657 12.3803C9.90346 12.1997 10.2188 11.7617 10.2188 11.25C10.2188 10.5769 9.6731 10.0312 9 10.0312C8.3269 10.0312 7.78125 10.5769 7.78125 11.25C7.78125 11.7523 8.08513 12.1836 8.51907 12.3702V13.4294C8.51907 13.6883 8.72894 13.8981 8.98782 13.8981C9.24671 13.8981 9.45657 13.6883 9.45657 13.4294V12.3803ZM8.25278 5.92679L8.73512 6.40913C8.86309 6.5371 9.06981 6.5371 9.19778 6.40913L9.68012 5.92679C9.83434 5.77257 9.80153 5.50679 9.60465 5.40507C9.40618 5.30316 9.18628 5.25 8.96317 5.25C8.74006 5.25 8.52016 5.30316 8.32168 5.40507C8.13465 5.50679 8.09856 5.77257 8.25278 5.92679Z" fill="#6C6F80"/>
</g>
</svg>

<svg xmlns="http://www.w3.org/2000/svg" width="18" height="18" fill="none" viewBox="0 0 18 18">
  <path fill="#6C6F80" fill-rule="evenodd" d="M9.041 1.406a4.781 4.781 0 0 0-4.723 4.038.469.469 0 1 0 .926.145 3.844 3.844 0 0 1 7.594 0 .469.469 0 0 0 .926-.145 4.78 4.78 0 0 0-4.723-4.038ZM7.808 4.773a.469.469 0 1 1-.616-.708 2.812 2.812 0 0 1 3.685-.005.469.469 0 1 1-.613.709 1.875 1.875 0 0 0-2.456.004Zm5.88 3.653H4.312a.188.188 0 0 0-.187.188v6.374c0 .104.084.188.188.188h9.375a.187.187 0 0 0 .187-.188V8.614a.187.187 0 0 0-.188-.188Zm-9.376-.937c-.62 0-1.125.503-1.125 1.125v6.374c0 .622.504 1.125 1.126 1.125h9.375c.62 0 1.124-.503 1.124-1.124V8.614c0-.622-.503-1.125-1.124-1.125H4.312Zm5.145 4.891a1.219 1.219 0 1 0-.938-.01v1.06a.469.469 0 1 0 .938 0v-1.05ZM8.253 5.927l.482.482a.327.327 0 0 0 .463 0l.482-.482a.327.327 0 0 0-.075-.522 1.404 1.404 0 0 0-1.283 0 .332.332 0 0 0-.07.522Z" clip-rule="evenodd"/>
</svg>
